desktop/resources/assets/link.svg

<svg width="16" height="16" viewBox="0 0 16 16" fill="none" xmlns="http://www.w3.org/2000/svg">
<path d="M9.49999 4H10.5C12.433 4 14 5.567 14 7.5C14 9.36856 12.5357 10.8951 10.6941 10.9948L10.5023 11L9.5023 11.0046C9.22616 11.0059 9.00127 10.783 8.99999 10.5069C8.99888 10.2614 9.17481 10.0565 9.40787 10.0131L9.4977 10.0046L10.5 10C11.8807 10 13 8.88071 13 7.5C13 6.17452 11.9685 5.08996 10.6644 5.00532L10.5 5H9.49999C9.22386 5 8.99999 4.77614 8.99999 4.5C8.99999 4.25454 9.17687 4.05039 9.41012 4.00806L9.49999 4H10.5H9.49999ZM5.5 4H6.5C6.77614 4 7 4.22386 7 4.5C7 4.74546 6.82312 4.94961 6.58988 4.99194L6.5 5H5.5C4.11929 5 3 6.11929 3 7.5C3 8.82548 4.03154 9.91004 5.33562 9.99468L5.5 10H6.5C6.77614 10 7 10.2239 7 10.5C7 10.7455 6.82312 10.9496 6.58988 10.9919L6.5 11H5.5C3.567 11 2 9.433 2 7.5C2 5.63144 3.46428 4.10487 5.30796 4.00518L5.5 4H6.5H5.5ZM5.50023 7L10.5002 7.0023C10.7764 7.00242 11.0001 7.22638 11 7.50252C10.9999 7.74798 10.8229 7.95205 10.5897 7.99428L10.4998 8.0023L5.49977 8C5.22363 7.99987 4.99987 7.77591 5 7.49977C5.00011 7.25431 5.17708 7.05024 5.41035 7.00801L5.50023 7Z" fill="#888"/>
</svg>

<svg xmlns="http://www.w3.org/2000/svg" width="16" height="16" fill="none"><path fill="#888" d="M9.5 4h1a3.5 3.5 0 0 1 .194 6.995l-.192.005-1 .005a.5.5 0 0 1-.094-.992l.09-.008L10.5 10a2.5 2.5 0 0 0 .164-4.995L10.5 5h-1a.5.5 0 0 1-.09-.992zh1zm-4 0h1a.5.5 0 0 1 .09.992L6.5 5h-1a2.5 2.5 0 0 0-.164 4.995L5.5 10h1a.5.5 0 0 1 .09.992L6.5 11h-1a3.5 3.5 0 0 1-.192-6.995zh1zm0 3 5 .002a.5.5 0 0 1 .09.992l-.09.008L5.5 8a.5.5 0 0 1-.09-.992z"/></svg>
